svg/paperclip.svg

<svg xmlns="http://www.w3.org/2000/svg" viewBox="0 0 24 24"><path d="M16.5 6v11.5a4 4 0 0 1-4 4 4 4 0 0 1-4-4V5A2.5 2.5 0 0 1 11 2.5 2.5 2.5 0 0 1 13.5 5v10.5a1 1 0 0 1-1 1 1 1 0 0 1-1-1V6H10v9.5a2.5 2.5 0 0 0 2.5 2.5 2.5 2.5 0 0 0 2.5-2.5V5a4 4 0 0 0-4-4 4 4 0 0 0-4 4v12.5a5.5 5.5 0 0 0 5.5 5.5 5.5 5.5 0 0 0 5.5-5.5V6z"/></svg>

<?xml version="1.0" encoding="UTF-8"?><!DOCTYPE svg PUBLIC "-//W3C//DTD SVG 1.1//EN" "http://www.w3.org/Graphics/SVG/1.1/DTD/svg11.dtd"><svg xmlns="http://www.w3.org/2000/svg" xmlns:xlink="http://www.w3.org/1999/xlink" version="1.1" id="mdi-paperclip" width="24" height="24" viewBox="0 0 24 24"><path d="M16.5,6V17.5A4,4 0 0,1 12.5,21.5A4,4 0 0,1 8.5,17.5V5A2.5,2.5 0 0,1 11,2.5A2.5,2.5 0 0,1 13.5,5V15.5A1,1 0 0,1 12.5,16.5A1,1 0 0,1 11.5,15.5V6H10V15.5A2.5,2.5 0 0,0 12.5,18A2.5,2.5 0 0,0 15,15.5V5A4,4 0 0,0 11,1A4,4 0 0,0 7,5V17.5A5.5,5.5 0 0,0 12.5,23A5.5,5.5 0 0,0 18,17.5V6H16.5Z" /></svg>
